build/img/svg/service1.svg

<svg width="44" height="48" viewBox="0 0 44 48" fill="none" xmlns="http://www.w3.org/2000/svg">
<g clip-path="url(#clip0)">
<path d="M43.5945 15.9319C43.341 13.4809 41.5161 10.2638 39.5899 8.78298C39.5899 8.78298 36.6498 6.58723 33 4.44255C29.3502 2.24681 26.0046 0.765957 26.0046 0.765957C24.8894 0.255319 23.4194 0 22 0C20.53 0 19.0599 0.255319 17.9954 0.765957C17.9954 0.765957 14.7005 2.24681 11 4.44255C7.35023 6.6383 4.41014 8.78298 4.41014 8.78298C2.43318 10.2638 0.658986 13.4809 0.40553 15.9319C0.40553 15.9319 0 19.6085 0 24C0 28.3404 0.40553 32.0681 0.40553 32.0681C0.658986 34.5191 2.48387 37.7362 4.41014 39.217C4.41014 39.217 7.35023 41.4128 11 43.6085C14.6498 45.8043 17.9954 47.2851 17.9954 47.2851C19.1106 47.7957 20.5806 48.0511 22 48.0511C23.47 48.0511 24.9401 47.7957 26.0046 47.2851C26.0046 47.2851 29.2995 45.8043 33 43.6085C36.6498 41.4128 39.5899 39.217 39.5899 39.217C41.5668 37.7362 43.341 34.5191 43.5945 32.0681C43.5945 32.0681 44 28.3915 44 24C44 19.6596 43.5945 15.9319 43.5945 15.9319ZM41.5668 31.8128C41.3641 33.7532 39.8433 36.4085 38.3733 37.5319C38.3226 37.5319 35.4839 39.6766 31.9862 41.7702C28.4885 43.8638 25.2442 45.3447 25.1935 45.3447C24.3825 45.7021 23.2166 45.9064 22 45.9064C20.7834 45.9064 19.6175 45.7021 18.8064 45.3447C18.7558 45.3447 15.5622 43.8638 12.0138 41.7702C8.51613 39.6766 5.62673 37.5319 5.62673 37.5319C4.10599 36.4085 2.63594 33.7021 2.43318 31.8128C2.38249 31.8128 2.02765 28.1872 2.02765 24C2.02765 19.8128 2.38249 16.1872 2.38249 16.1872C2.58525 14.2468 4.10599 11.5915 5.57604 10.4681C5.62673 10.4681 8.46544 8.3234 11.9631 6.22979C15.4608 4.13617 18.7051 2.65532 18.7558 2.65532C19.6175 2.24681 20.7834 2.04255 22 2.04255C23.2166 2.04255 24.3825 2.24681 25.1935 2.60426C25.2442 2.60426 28.4378 4.08511 31.9862 6.17872C35.4839 8.27234 38.3733 10.417 38.3733 10.417C39.894 11.5404 41.3641 14.2468 41.5668 16.1362C41.5668 16.1872 41.9217 19.7617 41.9217 23.9489C41.9723 28.1872 41.5668 31.8128 41.5668 31.8128Z" fill="#C22353"/>
<path d="M24.2304 24.6638C25.0414 23.8468 25.599 22.6723 25.599 21.3446C25.599 18.7915 23.6221 16.7489 21.1889 16.7489C18.7557 16.7489 16.7788 18.7915 16.7788 21.3446C16.7788 22.6723 17.2857 23.8468 18.1474 24.6638C16.576 25.3276 15.258 26.5021 14.5483 28.034C14.2442 28.6978 14.2949 29.4638 14.6497 30.0766C14.8525 30.3829 15.258 31.0468 17.3364 31.7106C18.046 31.9659 19.5161 32.3234 21.0875 32.3234H21.1382C23.2165 32.3234 26.7649 31.4553 27.6774 29.9234C28.0829 29.2595 28.0829 28.4936 27.7788 27.8298C27.0691 26.451 25.8018 25.3276 24.2304 24.6638ZM21.1889 18.8425C22.5069 18.8425 23.5714 19.9659 23.5714 21.3957C23.5714 22.8255 22.5069 23.9489 21.1889 23.9489C19.8709 23.9489 18.8064 22.8255 18.8064 21.3957C18.8064 19.9659 19.8709 18.8425 21.1889 18.8425ZM21.1889 30.3829C21.1382 30.3829 21.1382 30.3829 21.1889 30.3829C18.705 30.3829 16.2718 29.2595 16.3732 28.9532C17.1843 27.2681 19.0599 26.0936 21.2396 26.0936C23.3686 26.0936 25.2442 27.217 26.0553 28.851C26.1566 29.1574 23.7235 30.3319 21.1889 30.3829Z" fill="#C22353"/>
<path d="M29.9076 11.5405V9.44684C29.9076 8.73195 29.6035 8.06812 29.0966 7.65961C28.5896 7.2511 27.88 7.14897 27.1703 7.35323L12.4191 11.5405C12.115 11.6426 11.9122 11.8468 11.7602 12.1022C11.4053 12.4596 11.1519 12.9702 11.1519 13.583V36.5617C11.1519 37.6851 12.0643 38.6043 13.1795 38.6043H29.4007C30.5159 38.6043 31.4284 37.6851 31.4284 36.5617V13.583C31.4284 12.5617 30.7694 11.7447 29.9076 11.5405ZM27.7279 9.29365H27.88C27.88 9.29365 27.9307 9.34472 27.9307 9.44684V11.4894H20.0228L27.7279 9.29365ZM29.4007 36.5107H13.1795V13.5319H29.4007V36.5107Z" fill="#C22353"/>
</g>
<defs>
<clipPath id="clip0">
<rect width="44" height="48" fill="white"/>
</clipPath>
</defs>
</svg>

<svg width="44" height="48" fill="none" xmlns="http://www.w3.org/2000/svg"><g clip-path="url(#clip0)" fill="#C22353"><path d="M43.594 15.932c-.253-2.451-2.078-5.668-4.004-7.149 0 0-2.94-2.196-6.59-4.34C29.35 2.247 26.005.766 26.005.766 24.889.256 23.419 0 22 0c-1.47 0-2.94.255-4.005.766 0 0-3.295 1.48-6.995 3.677-3.65 2.195-6.59 4.34-6.59 4.34-1.977 1.48-3.75 4.698-4.004 7.149 0 0-.406 3.676-.406 8.068 0 4.34.406 8.068.406 8.068.253 2.451 2.078 5.668 4.004 7.149 0 0 2.94 2.196 6.59 4.392a71.16 71.16 0 006.995 3.676c1.116.51 2.586.766 4.005.766 1.47 0 2.94-.255 4.005-.766 0 0 3.294-1.48 6.995-3.676a88.995 88.995 0 006.59-4.392c1.977-1.48 3.751-4.698 4.004-7.149 0 0 .406-3.676.406-8.068 0-4.34-.406-8.068-.406-8.068zm-2.027 15.88c-.203 1.941-1.724 4.596-3.194 5.72-.05 0-2.89 2.145-6.387 4.238-3.498 2.094-6.742 3.575-6.793 3.575-.81.357-1.976.561-3.193.561s-2.383-.204-3.194-.561c-.05 0-3.244-1.481-6.792-3.575-3.498-2.093-6.387-4.238-6.387-4.238-1.521-1.123-2.991-3.83-3.194-5.72-.05 0-.405-3.625-.405-7.812s.354-7.813.354-7.813c.203-1.94 1.724-4.596 3.194-5.719.05 0 2.89-2.145 6.387-4.238 3.498-2.094 6.742-3.575 6.793-3.575.861-.408 2.027-.612 3.244-.612s2.383.204 3.194.561c.05 0 3.244 1.481 6.792 3.575a87.03 87.03 0 016.387 4.238c1.521 1.123 2.991 3.83 3.194 5.72 0 .05.355 3.625.355 7.812.05 4.238-.355 7.864-.355 7.864z"/><path d="M24.23 24.664a4.722 4.722 0 001.37-3.32c0-2.553-1.978-4.595-4.41-4.595-2.434 0-4.411 2.043-4.411 4.596 0 1.327.507 2.502 1.369 3.319-1.572.664-2.89 1.838-3.6 3.37a2.233 2.233 0 00.102 2.043c.203.306.608.97 2.687 1.634.71.255 2.18.612 3.75.612h.051c2.079 0 5.627-.868 6.54-2.4.405-.663.405-1.43.101-2.093-.71-1.379-1.977-2.502-3.548-3.166zm-3.04-5.821c1.317 0 2.382 1.123 2.382 2.553s-1.065 2.553-2.383 2.553-2.382-1.123-2.382-2.553 1.064-2.553 2.382-2.553zm0 11.54c-.052 0-.052 0 0 0-2.485 0-4.918-1.123-4.817-1.43.811-1.685 2.687-2.86 4.867-2.86 2.129 0 4.004 1.124 4.816 2.758.1.306-2.332 1.48-4.867 1.532z"/><path d="M29.908 11.54V9.447c0-.715-.304-1.379-.811-1.787-.507-.409-1.217-.511-1.927-.307L12.42 11.54c-.305.103-.508.307-.66.562a2.085 2.085 0 00-.608 1.481v22.979c0 1.123.913 2.042 2.028 2.042H29.4a2.042 2.042 0 002.029-2.042V13.583c0-1.021-.66-1.838-1.521-2.043zm-2.18-2.246h.152s.05.05.05.153v2.042h-7.907l7.705-2.195zm1.673 27.217H13.18V13.53H29.4v22.98z"/></g><defs><clipPath id="clip0"><path fill="#fff" d="M0 0h44v48H0z"/></clipPath></defs></svg>
